X: 10112
T: NOTHING WILL YE TAK', MAN
R: Reel
B: K\"ohler's Violin Repository, v.1, 1885 p.11 #2
F: http://www.archive.org/details/klersviolinrepos01edin
Z: 2011 John Chambers <jc:trillian.mit.edu>
N: Time signature missing; fixed.
M: C|
L: 1/8
K: G
|: (Bd)de (gd)ed | (Bd)de (gB)Ac | (Bd)de (gd)ed | (eg)(dg) (Bg)G2 :|
|: BG G//G//G3/ (BA)Bg | BG G//G//G3/ (B/c/d) Ac | BG G//G//G3/ (BA)Bd | (eg)(dg) (Bg)A2 :|

%%sep 2 1 500

